!!!COM:	la Rue, Pierre de
!!!CDT:	~1452///-1518/11/20
!!!OPR:	Missa De Sancto Antonio
!!!ONM:	3
!!!OTL:	Credo
!!!AGN:	Mass; Credo
!!!SCT:	Rue1012c
!!!SCA:	Rue1012c
!!!voices:	4
!!!voices-OPR:	4
**kern	**kern	**kern	**kern
*staff4	*staff3	*staff2	*staff1
*Ivox	*Ivox	*Ivox	*Ivox
*I"Bassus	*I"Tenor	*I"Contra	*I"Discantus
*I'B	*I'T	*I'C	*I'D
*>[A,B]	*>[A,B]	*>[A,B]	*>[A,B]
*>A	*>A	*>A	*>A
*clefF4	*clefGv2	*clefGv2	*clefG2
*k[]	*k[]	*k[]	*k[]
*M3/1	*M3/1	*M3/1	*M3/1
*met(O)	*met(O)	*met(O)	*met(O)
!!section: Patrem omnipotentem
!!!OMD: Patrem omnipotentem
=1-	=1-	=1-	=1-
0E	0.r	0B	0.r
1F	.	1d	.
=2	=2	=2	=2
0E	0.r	2e\	0.r
.	.	1g	.
.	.	4f\	.
.	.	4e\	.
1G	.	1d	.
=3	=3	=3	=3
2A\	0.r	2.c\	0e
1c	.	.	.
.	.	4d\	.
.	.	2e\	.
4B\	.	1e	.
4A\	.	.	.
1B	.	.	1g
.	.	2d\	.
=4	=4	=4	=4
1A	0.r	1e	2a/
.	.	.	1cc
2r	.	2e\	.
1d	.	1f	4b\
.	.	.	4a/
.	.	.	1b
2B\	.	2d\	.
=5	=5	=5	=5
2c\	0.r	2e\	2a/
2B\	.	1d	1dd
2.G\	.	.	.
.	.	2g\	2b\
4B\	.	.	.
2A\	.	2f\	2cc\
2G\	.	[2g\	2b\
=6	=6	=6	=6
2.c\	0.r	4g\]	1g
.	.	4f\	.
.	.	2e\	.
4B\	.	.	.
2B\	.	2d\	2r
2.A\	.	2c\	2.cc\
.	.	[1e	.
4G\	.	.	4b\
2G\	.	.	2b\
=7	=7	=7	=7
2A\	0.r	1e]	2.a/
1E	.	.	.
.	.	.	4g/
.	.	1r	2g/
2D\	.	.	2a/
4E\	.	1B	1e
4F\	.	.	.
4G\	.	.	.
4E\	.	.	.
=8	=8	=8	=8
2F\	0.r	2A/	2d/
1E	.	2.B\	4e/
.	.	.	4f/
.	.	.	4g/
.	.	4c\	4e/
2D\	.	4d\	2f/
.	.	4B\	.
2E\	.	1c	1e
2C/	.	.	.
=9	=9	=9	=9
2D\	0.r	2B\	2d/
2C/	.	2.c\	2e/
1F	.	.	4d/
.	.	4B\	4c/
.	.	1A	4B/
.	.	.	4A/
1E	.	.	1B
.	.	2G#i/	.
=10	=10	=10	=10
2r	[0.c	1A	0.r
2.c\	.	.	.
.	.	2r	.
4B\	.	.	.
4A\	.	2.c\	.
4G\	.	.	.
1F	.	.	.
.	.	4B\	.
.	.	2A/	.
=11	=11	=11	=11
2E\	0.c]	2G/	2r
2F\	.	2F/	2.cc\
2C/	.	2E/	.
.	.	.	4b\
2.c\	.	2A/	2a/
.	.	1r	2g/
4B\	.	.	.
2A\	.	.	2f/
=12	=12	=12	=12
2G\	[0.B	1r	2e/
2F\	.	.	2d/
2E\	.	1r	2g/
2D\	.	.	4g/
.	.	.	4f/
2G\	.	2r	2e/
4G\	.	2e\	4e/
4F\	.	.	4f/
=13	=13	=13	=13
2E\	0.B]	2.g\	4g/
.	.	.	4a/
4E\	.	.	1b
4F\	.	4f\	.
2G\	.	4e\	.
.	.	4d\	.
2A\	.	2.e\	1a
1E	.	.	.
.	.	8d\L	.
.	.	8c\J	.
.	.	2B\	2g#i/
=14	=14	=14	=14
1.A	1.c	0A	0a
4B\	2A/	.	.
4c\	.	.	.
1d	1B	1G	1r
=15	=15	=15	=15
2c\	0A	2A/	1a
1c	.	2.c\	.
.	.	.	2a/
.	.	4B\	.
4B\	.	1A	4b\
4A\	.	.	4cc\
1B	1r	.	1dd
.	.	2G#i/	.
=16	=16	=16	=16
0A	0.r	2A/	1.cc
.	.	2e\	.
.	.	2f\	.
.	.	1a	4b\
.	.	.	4a/
1E	.	.	1b
.	.	2g#i\	.
=17	=17	=17	=17
2r	[0.c	2a\	1a
1A	.	2.A/	.
.	.	.	2r
.	.	4B\	.
2A\	.	4c\	2a/
.	.	4d\	.
2E\	.	2e\	2g/
[2F\	.	2A/	[2a/
=18	=18	=18	=18
4F\]	1c]	1f	4a/]
4G\	.	.	4b\
2A\	.	.	2cc\
2.G\	0d	1g	2b\
.	.	.	2b\
4F\	.	.	.
2D\	.	2f\	2a/
2G\	.	2g\	2b\
=19	=19	=19	=19
2D\	1d	2f\	2a/
2.G\	.	1g	2.b\
.	2e\	.	.
4F\	.	.	4cc\
2D\	1f	1a	2dd\
2F\	.	.	2cc\
2G\	2d\	[2g\	2b\
=20	=20	=20	=20
1C	4e\	2g\]	4cc\
.	4d\	.	4b\
.	4e\	1e	4cc\
.	4f\	.	4dd\
2C/	4g\	.	2ee\
.	4f\	.	.
2D\	4e\	2.a\	1dd
.	4d\	.	.
1A	1e	.	.
.	.	4g\	.
.	.	2a\	2cc#i\
=21	=21	=21	=21
2.D\	0d	1f	2dd\
.	.	.	4cc\
4E\	.	.	4b\
2F\	.	2r	2a/
2.G\	.	2d\	1b
.	1r	2e\	.
4F\	.	.	.
2D\	.	2f\	2a/
=22	=22	=22	=22
2G\	0.r	2g\	2b\
2A\	.	2e\	2cc\
2B\	.	2d\	2dd\
2G\	.	2.g\	2b\
1d	.	.	2a/
.	.	4f\	.
.	.	4d\	[2dd\
.	.	4e\	.
=23	=23	=23	=23
1D	0.r	2.f\	4dd\]
.	.	.	4cc\
.	.	.	4a/
.	.	4e\	4b\
1r	.	2c\	2.cc\
.	.	2f\	.
.	.	.	4b\
1r	.	2e\	2g/
.	.	2c\	2cc\
=24	=24	=24	=24
2r	0.r	2.d\	2b\
2.F\	.	.	2.a/
.	.	4c\	.
.	.	4A/	.
4E\	.	4B\	4g/
4C/	.	2c\	4e/
4D\	.	.	4f/
2E\	.	2G/	2g/
[2F\	.	2A/	2c/
=25	=25	=25	=25
4F\]	0.r	4B\	1.f
4E\	.	4c\	.
4D\	.	1d	.
4C/	.	.	.
2BB-i/	.	.	.
2C/	.	1c	2e/
1G	.	.	2d/
.	.	2B\	2d/
=26	=26	=26	=26
0C	[0.e	0c	0c
1r	.	1A	1r
=27	=27	=27	=27
2.E\	0.e]	1G	2.g/
4F\	.	.	4a/
2G\	.	1r	2b\
2.A\	.	.	2.cc\
.	.	1r	.
4B\	.	.	4b\
2c\	.	.	2g/
=28	=28	=28	=28
2.F\	0.f	0.r	2.a/
4G\	.	.	4b\
2A\	.	.	2cc\
2.B-i\	.	.	2.dd\
4c\	.	.	4cc\
2d\	.	.	2a/
=29	=29	=29	=29
2.G\	[0.g	1d	2.b\
4A\	.	.	4cc\
2B\	.	2d\	2dd\
2.c\	.	2c\	2.ee\
.	.	2.e\	.
4d\	.	.	4dd\
2e\	.	.	2b\
.	.	4f\	.
=30	=30	=30	=30
2c\	0.g]	2g\	2cc\
2B\	.	2d\	1dd
1c	.	2e\	.
.	.	2c\	2.cc\
1G	.	1d	.
.	.	.	4b\
.	.	.	2b\
=31	=31	=31	=31
1r	1e	1c	2cc\
.	.	.	2g/
1r	2f\	2d\	2a/
.	1e	2c\	2g/
1D	.	2.A/	1f
.	2d\	.	.
.	.	4B\	.
=32	=32	=32	=32
2A\	0.e	4c\	1e
.	.	4d\	.
1A	.	2.c\	.
.	.	.	1r
.	.	4A/	.
2G\	.	2B\	.
1A	.	2A/	1r
.	.	[2c\	.
=33	=33	=33	=33
2.c\	1A	4c\]	0.r
.	.	4d\	.
.	.	4e\	.
4B\	.	4d\	.
2A\	2e\	4c\	.
.	.	4B\	.
2G\	1e	1B	.
1F	.	.	.
.	2d\	2A/	.
=34	=34	=34	=34
2E\	2.e\	1B	0.r
2.G\	.	.	.
.	4d\	.	.
.	4B\	1r	.
4F\	4c\	.	.
4D\	2.d\	.	.
4E\	.	.	.
2.F\	.	1r	.
.	4c\	.	.
.	4A/	.	.
4E\	4B\	.	.
=35	=35	=35	=35
4C/	1.c	0.r	1r
4D\	.	.	.
2E\	.	.	.
2F\	.	.	1r
1A	4B\	.	.
.	4A/	.	.
.	1B	.	1b
2G#i\	.	.	.
=36	=36	=36	=36
1A	1A	1e	1cc
1r	1r	2e\	2b\
.	.	1f	2.a/
1r	1r	.	.
.	.	.	4b\
.	.	2e\	2cc\
=37	=37	=37	=37
0.r	0.r	2.d\	2b\
.	.	.	2.a/
.	.	4e\	.
.	.	2f\	.
.	.	.	4b\
.	.	2e\	4cc\
.	.	.	4dd\
.	.	2.d\	2b\
.	.	.	[2a/
.	.	4e\	.
=38	=38	=38	=38
0.r	0.r	4f\	4a/]
.	.	4g\	4b\
.	.	2e\	2cc\
.	.	2.d\	2dd\
.	.	.	2.ff\
.	.	4e\	.
.	.	2f\	.
.	.	.	4ee\
.	.	[2g\	2ee\
=39	=39	=39	=39
0.r	0.r	4g\]	2dd\
.	.	4f\	.
.	.	2e\	2cc\
.	.	2d\	2b\
.	.	2c\	1a
.	.	1B	.
.	.	.	2g#i/
=40	=40	=40	=40
1A	0.r	1A	2a/
.	.	.	2a/
2A\	.	1r	2e/
2E\	.	.	2.g/
2.G\	.	1r	.
.	.	.	4f/
.	.	.	4d/
4F\	.	.	4e/
=41	=41	=41	=41
4D\	0.r	0.r	4f/
4E\	.	.	4g/
2F\	.	.	2a/
2.G\	.	.	2g/
.	.	.	1e
4A\	.	.	.
1F	.	.	.
.	.	.	2d/
=42	=42	=42	=42
0.E	0B	1r	1e
.	.	1e	2r
.	.	.	1g
.	1B	2e\	.
.	.	2e\	2g/
=43	=43	=43	=43
0.A	0c	4f\	1a
.	.	4e\	.
.	.	2.a\	.
.	.	.	2a/
.	.	4g\	.
.	.	4f\	1cc
.	.	4e\	.
.	1c	1f	.
.	.	.	2cc\
=44	=44	=44	=44
0G	[0.d	0g	1b
.	.	.	2r
.	.	.	2b\
2r	.	1g	2b\
2B\	.	.	2b\
=45	=45	=45	=45
2B\	0d]	0G	2.dd\
2B\	.	.	.
.	.	.	4cc\
2.d\	.	.	4b\
.	.	.	4a/
.	.	.	1a
4c\	.	.	.
4B\	1d	1d	.
4A\	.	.	.
2B\	.	.	2g#i/
=46	=46	=46	=46
0A	1c	0e	0a
.	2.c\	.	.
.	4d\	.	.
2.E\	2e\	1r	1r
.	[2B\	.	.
4F\	.	.	.
=47	=47	=47	=47
2G\	4B\]	0.r	0.r
.	4c\	.	.
2.D\	2d\	.	.
.	2.A/	.	.
4E\	.	.	.
4F\	.	.	.
4G\	4B\	.	.
2A\	4c\	.	.
.	4d\	.	.
2A\	[2e\	.	.
=48	=48	=48	=48
2A\	4e\]	0.r	0.r
.	4f\	.	.
1G	4g\	.	.
.	4f\	.	.
.	4e\	.	.
.	4d\	.	.
2F\	1d	.	.
1E	.	.	.
.	2c#i\	.	.
=49	=49	=49	=49
1D	1d	1f	1a
2r	1d	2f\	2a/
2D\	.	2f\	2a/
2G\	2d\	2g\	2b\
2G\	2d\	4g\	2b\
.	.	4f\	.
=50	=50	=50	=50
2C/	2e\	4e\	1g
.	.	4d\	.
2C/	2e\	2c\	.
2C/	1c	2e\	2g/
2.F\	.	1f	2.a/
.	2r	.	.
4E\	.	.	4b\
2C/	2c\	2g\	2cc\
=51	=51	=51	=51
2G\	2d\	2g\	2b\
2F\	2d\	2d\	1a
0D	1d	2.f\	.
.	.	.	2g/
.	.	4e\	.
.	1d	2d\	2f/
.	.	4c\	4e/
.	.	4B\	4d/
=52	=52	=52	=52
1A	[0.e	2A/	1c
.	.	2c\	.
2G\	.	2B\	2r
1A	.	1c	2.c/
.	.	.	4d/
4G\	.	4B\	4e/
4F\	.	4A/	4f/
=53	=53	=53	=53
2E\	0.e]	2G/	2g/
2A\	.	2c\	2c/
2G\	.	2B\	1.g
2.C/	.	2.c\	.
4D\	.	4B\	.
2E\	.	2G/	2g/
=54	=54	=54	=54
1F	2r	2F/	2a/
.	2A/	1f	2.cc\
1G	1d	.	.
.	.	.	4b\
.	.	4d\	2b\
.	.	4e\	.
2A\	2c\	4f\	2a/
.	.	4g\	.
[2F\	2A/	[2a\	[2cc\
=55	=55	=55	=55
2F\]	1d	2a\]	4cc\]
.	.	.	4b\
2G\	.	2g\	2b\
2A\	2c\	2e\	2a/
2D\	2A/	2f\	2.dd\
1G	2B\	1g	.
.	.	.	4cc\
.	[2e\	.	4b\
.	.	.	4a/
=56	=56	=56	=56
2A\	4e\]	2e\	2.cc\
.	4c\	.	.
2F\	2.d\	2f\	.
.	.	.	4b\
2G\	.	0e	2b\
.	4c\	.	.
2A\	4B\	.	1a
.	4A/	.	.
1E	1B	.	.
.	.	.	2g#i/
=57	=57	=57	=57
0.AAl	0.Al	0.el	0.al
!!LO:LB:i:g=z
=58||	=58||	=58||	=58||
*>B	*>B	*>B	*>B
*clefF4	*clefGv2	*clefGv2	*clefG2
*k[]	*k[]	*k[]	*k[]
*M2/1	*M2/1	*M2/1	*M2/1
*met(C|)	*met(C|)	*met(C|)	*met(C|)
!!section: Crucifixus
!!!OMD: Crucifixus
0r	0r	1.f	0r
.	.	2f\	.
=59	=59	=59	=59
0r	0r	1e	1.cc
.	.	1c	.
.	.	.	2cc\
=60	=60	=60	=60
0r	0r	1d	1b
.	.	1e	1g
=61	=61	=61	=61
0r	0r	1f	1a
.	.	[1e	1b
=62	=62	=62	=62
0r	0r	2e\]	1cc
.	.	4d\	.
.	.	4c\	.
.	.	2.d\	[1b
.	.	4e\	.
=63	=63	=63	=63
0r	0r	2f\	2b\]
.	.	1g	4a/
.	.	.	4g/
.	.	.	1a
.	.	2f#i\	.
=64	=64	=64	=64
0r	0r	2.g\	2.g/
.	.	4f\	4a/
.	.	4e\	2b\
.	.	4d\	.
.	.	[2e\	[2cc\
=65	=65	=65	=65
0r	0r	4e\]	4cc\]
.	.	4d\	4b\
.	.	4c\	4a/
.	.	4B\	4g/
.	.	2A/	2f/
.	.	2G/	2e/
=66	=66	=66	=66
0r	0r	2A/	2f/
.	.	2c\	1a
.	.	1B	.
.	.	.	2g#i/
=67	=67	=67	=67
0A	[0e	2r	0a
.	.	1c	.
.	.	4B\	.
.	.	4A/	.
=68	=68	=68	=68
1A	0e]	2c\	1r
.	.	2B\	.
1A	.	1A	2r
.	.	.	[2cc\
=69	=69	=69	=69
2.c\	1e	1e	2cc\]
.	.	.	4b\
4B\	.	.	4a/
2A\	[1e	1r	2cc\
2G\	.	.	2b\
=70	=70	=70	=70
2.c\	1e]	0r	2a/
.	.	.	1cc
4B\	.	.	.
2A\	[1e	.	.
2G\	.	.	4b\
.	.	.	4a/
=71	=71	=71	=71
2A\	1e]	0r	2cc\
1E	.	.	2b\
.	[1c	.	2e/
[2F\	.	.	[2a/
=72	=72	=72	=72
2F\]	0c_	0r	2a/]
1E	.	.	1g
4D\	.	.	4f/
4C/	.	.	4e/
=73	=73	=73	=73
2E\	1c]	2r	2g/
2C/	.	1c	4f/
.	.	.	4e/
1G	1d	.	1d
.	.	2B\	.
=74	=74	=74	=74
0C	0e	2c\	0c
.	.	1e	.
.	.	4d\	.
.	.	4c\	.
=75	=75	=75	=75
0r	0r	2f\	2r
.	.	2e\	1g
.	.	2.c\	.
.	.	.	2g/
.	.	8d\L	.
.	.	8e\J	.
=76	=76	=76	=76
0r	0r	2f\	2a/
.	.	2.e\	2g/
.	.	.	2.e/
.	.	4f\	.
.	.	2g\	.
.	.	.	8f/L
.	.	.	8g/J
=77	=77	=77	=77
0r	0r	2f\	2a/
.	.	2e\	1g
.	.	1g	.
.	.	.	2b\
=78	=78	=78	=78
0r	0r	2f\	2a/
.	.	1g	4g/
.	.	.	4a/
.	.	.	4b\
.	.	.	4cc\
.	.	4f\	[2dd\
.	.	4e\	.
=79	=79	=79	=79
0r	0r	4f\	2dd\]
.	.	4e\	.
.	.	4d\	1cc
.	.	4c\	.
.	.	1d	.
.	.	.	2b\
=80	=80	=80	=80
1C	1.e	1c	1cc
[1E	.	[1g	[1b
.	2e\	.	.
=81	=81	=81	=81
1E]	1e	2g\]	2b\]
.	.	2g\	2b\
[1G	1e	[1g	[1b
=82	=82	=82	=82
1G]	0d	1g]	1b]
1D	.	1f	1a
=83	=83	=83	=83
1G	0d	2g\	1b
.	.	2G/	.
1F	.	1A	1a
=84	=84	=84	=84
[0E	[0e	0B	[0g
=85	=85	=85	=85
0E]	0e]	2r	0g]
.	.	2c\	.
.	.	2c\	.
.	.	2B\	.
=86	=86	=86	=86
2r	0r	2A/	0r
2F\	.	1d	.
2F\	.	.	.
2E\	.	2c\	.
=87	=87	=87	=87
2D\	0r	2B\	0r
1G	.	1e	.
2F\	.	[2d\	.
=88	=88	=88	=88
2E\	0r	4d\]	0r
.	.	4c\	.
1A	.	4B\	.
.	.	4A/	.
.	.	1B	.
2G#i\	.	.	.
=89	=89	=89	=89
0A	[0e	0A	1cc
.	.	.	1cc
=90	=90	=90	=90
0r	1e]	0r	1b
.	1d	.	1dd
=91	=91	=91	=91
0r	0f	1r	2dd\
.	.	.	1cc
.	.	1A	.
.	.	.	4b\
.	.	.	4a/
=92	=92	=92	=92
0E	0e	1B	1g
.	.	1B	2r
.	.	.	2g/
=93	=93	=93	=93
1A	1r	2.c\	1cc
.	.	4d\	.
1A	1c	2e\	1cc
.	.	2f\	.
=94	=94	=94	=94
1G	1d	2g\	2b\
.	.	1g	2b\
1D	1d	.	1a
.	.	2f\	.
=95	=95	=95	=95
1G	1.d	1g	2.g/
.	.	.	4a/
2G\	.	2g\	2b\
[2A\	2c\	[2e\	[2cc\
=96	=96	=96	=96
2A\]	1e	4e\]	2cc\]
.	.	4f\	.
2G\	.	2g\	2b\
2A\	2e\	2c\	2cc\
[2D\	2d\	[2f\	[2dd\
=97	=97	=97	=97
4D\]	1f	4f\]	4dd\]
4E\	.	4e\	4cc\
4F\	.	2d\	4a/
4G\	.	.	4b\
2A\	1e	2c\	2cc\
2E\	.	[2g\	[2b\
=98	=98	=98	=98
2F\	2c\	4g\]	2b\]
.	.	4a\	.
2D\	2d\	2f\	1a
1E	1B	[1e	.
.	.	.	2g#i/
=99	=99	=99	=99
0r	0A	2e\]	1a
.	.	2c\	.
.	.	1c	2r
.	.	.	[2e/
=100	=100	=100	=100
0r	0r	1r	4e/]
.	.	.	4f/
.	.	.	4g/
.	.	.	4a/
.	.	2r	2b\
.	.	[2A/	[2cc\
=101	=101	=101	=101
0r	0r	4A/]	2cc\]
.	.	4B\	.
.	.	4c\	4b\
.	.	4d\	4a/
.	.	2e\	2g/
.	.	[2f\	2a/
=102	=102	=102	=102
0r	0r	2f\]	1f
.	.	4e\	.
.	.	4d\	.
.	.	2c\	2e/
.	.	2d\	[2a/
=103	=103	=103	=103
0r	0r	1B	4a/]
.	.	.	4g#i/
.	.	.	2g#i/
.	.	1A	2a/
.	.	.	[2e/
=104	=104	=104	=104
0r	0r	1c	2e/]
.	.	.	1g
.	.	2B\	.
.	.	2A/	2f/
=105	=105	=105	=105
0r	0r	2.c\	2e/
.	.	.	2.g/
.	.	4d\	.
.	.	4e\	.
.	.	4f\	4a/
.	.	2d\	4b\
.	.	.	4cc\
=106	=106	=106	=106
0r	0r	1c	2a/
.	.	.	1g
.	.	2g\	.
.	.	2f\	[2dd\
=107	=107	=107	=107
0r	0r	2g\	2dd\]
.	.	2e\	2cc\
.	.	2f\	2dd\
.	.	[2d\	[2b\
=108	=108	=108	=108
0r	0r	4d\]	4b\]
.	.	4c\	4a/
.	.	2B\	1g
.	.	1A	.
.	.	.	2f#i/
=109	=109	=109	=109
0E	0e	1G	0g
.	.	2r	.
.	.	2B\	.
=110	=110	=110	=110
1E	1e	1B	0r
1E	1e	1c	.
=111	=111	=111	=111
1D	0f	1d	0r
[1A	.	[1c	.
=112	=112	=112	=112
2A\]	1f	2c\]	0r
4G\	.	4B\	.
4F\	.	4A/	.
2A\	1e	2c\	.
2E\	.	2G/	.
=113	=113	=113	=113
1G	1e	1B	0r
1F	1d	1A	.
=114	=114	=114	=114
0E	0e	1B	1.g
.	.	2B\	.
.	.	[2c\	2g/
=115	=115	=115	=115
0r	0r	4c\]	1g
.	.	4B\	.
.	.	1e	.
.	.	.	1f
.	.	2d\	.
=116	=116	=116	=116
1.A	0r	1e	1e
.	.	1r	2e/
2A\	.	.	[2f/
=117	=117	=117	=117
1G	0r	0r	2f/]
.	.	.	1e
1F	.	.	.
.	.	.	2d/
=118	=118	=118	=118
2E\	0r	0r	1e
2.A\	.	.	.
.	.	.	2r
4B\	.	.	.
2c\	.	.	[2a/
=119	=119	=119	=119
2d\	0r	0r	4a/]
.	.	.	4b\
2A\	.	.	2cc\
2B\	.	.	2dd\
[2c\	.	.	2a/
=120	=120	=120	=120
4c\]	0r	0r	2b\
4B\	.	.	.
4A\	.	.	2.cc\
4G\	.	.	.
4F\	.	.	.
4E\	.	.	4b\
[2A\	.	.	4a/
.	.	.	4g/
=121	=121	=121	=121
2A\]	0r	0r	2f/
2G\	.	.	1e
1F	.	.	.
.	.	.	2d/
=122	=122	=122	=122
[0E	[0e	1B	0e
.	.	2B\	.
.	.	[2c\	.
=123	=123	=123	=123
0E]	0e]	2c\]	0r
.	.	4B\	.
.	.	4A/	.
.	.	2B\	.
.	.	2c\	.
=124	=124	=124	=124
0r	2f\	2d\	0r
.	2e\	1e	.
.	1f	.	.
.	.	2d\	.
=125	=125	=125	=125
0E	0e	1e	0g
.	.	1B	.
=126	=126	=126	=126
1A	0e	1c	1cc
1A	.	1c	1cc
=127	=127	=127	=127
1D	0f	0d	1.a
1D	.	.	.
.	.	.	4b\
.	.	.	4cc\
=128	=128	=128	=128
1D	0f	0d	1dd
1D	.	.	1dd
=129	=129	=129	=129
0E	[0e	1.B	1g
.	.	.	2r
.	.	2G/	[2g/
=130	=130	=130	=130
1E	0e]	0G	2g/]
.	.	.	4a/
.	.	.	4b\
1E	.	.	2cc\
.	.	.	[2b\
=131	=131	=131	=131
2.G\	0r	0r	2b\]
.	.	.	4a/
8A\L	.	.	4g/
8B\J	.	.	.
2c\	.	.	2a/
[2B\	.	.	[2g/
=132	=132	=132	=132
2B\]	0r	0r	2g/]
4A\	.	.	4a/
4G\	.	.	4b\
2A\	.	.	2cc\
[2G\	.	.	[2b\
=133	=133	=133	=133
2G\]	0r	0r	2b\]
4A\	.	.	4a/
4B\	.	.	4g/
2c\	.	.	2a/
[2B\	.	.	2g/
=134	=134	=134	=134
2B\]	0r	0r	1dd
4A\	.	.	.
4G\	.	.	.
2A\	.	.	2cc\
2G\	.	.	[2b\
=135	=135	=135	=135
2A\	0r	0r	2b\]
2c\	.	.	1a
1B	.	.	.
.	.	.	2g#i/
=136	=136	=136	=136
1A	0e	1.c	0a
2r	.	.	.
[2A\	.	2c\	.
=137	=137	=137	=137
2A\]	1e	2B\	1r
2G\	.	2B\	.
1A	[1e	2A/	[1cc
.	.	[2c\	.
=138	=138	=138	=138
1A	1e]	4c\]	2cc\]
.	.	4B\	.
.	.	1A	2cc\
1E	1e	.	2b\
.	.	2G#i/	2b\
=139	=139	=139	=139
2r	[0e	0A	2a/
2c\	.	.	2.cc\
2c\	.	.	.
.	.	.	4b\
2c\	.	.	[2a/
=140	=140	=140	=140
1B	1e]	1E	2a/]
.	.	.	2g#i/
[1A	[1c	1r	1a
=141	=141	=141	=141
2A\]	1c]	0r	1e
2A\	.	.	.
2A\	1c	.	2r
2A\	.	.	2e/
=142	=142	=142	=142
1G	1d	1r	2g/
.	.	.	1g
1G	1B	1e	.
.	.	.	2g/
=143	=143	=143	=143
1.F	0c	1f	1a
.	.	2f\	2a/
2C/	.	[2e\	[2g/
=144	=144	=144	=144
1C	1r	2e\]	2g/]
.	.	2c\	2e/
1r	2r	1d	2f/
.	[2g\	.	4e/
.	.	.	4d/
=145	=145	=145	=145
1E	2g\]	1e	1c
.	2e\	.	.
2D\	2f\	1A	1d
2D\	4e\	.	.
.	4d\	.	.
=146	=146	=146	=146
1A	2.c\	0r	2.e/
.	4d\	.	4f/
2G\	2e\	.	2g/
[2F\	[2f\	.	[2a/
=147	=147	=147	=147
4F\]	2f\]	0r	2a/]
4E\	.	.	.
2C/	1e	.	2g/
1D	.	.	1f
.	2d\	.	.
=148	=148	=148	=148
*M3/1	*M3/1	*M3/1	*M3/1
*met(3)	*met(3)	*met(3)	*met(3)
0A	0c	1c	0e
.	.	1c	.
1r	1r	1B	1r
=149	=149	=149	=149
1F	0.r	2A/	0.r
.	.	2B\	.
1F	.	2c\	.
.	.	2d\	.
1E	.	1e	.
=150	=150	=150	=150
1.D	0.r	1f	0.r
.	.	1.d	.
2E\	.	.	.
2F\	.	.	.
2G\	.	2c\	.
=151	=151	=151	=151
0A	0.r	1c	1e
.	.	0B	1e
1G#i	.	.	1d
=152	=152	=152	=152
0A	0.r	0A	2c/
.	.	.	2d/
.	.	.	2e/
.	.	.	2f/
1G	.	1r	1g
=153	=153	=153	=153
1F	1c	0.r	0a
0E	1c	.	.
.	1B	.	1g#i
=154	=154	=154	=154
1.F	1.A	0.r	0.a
2G\	2B\	.	.
2A\	2c\	.	.
2B\	2d\	.	.
=155	=155	=155	=155
1c	1e	0.r	0.r
1.A	1.f	.	.
2G\	2e\	.	.
=156	=156	=156	=156
1E	0e	0.r	0.r
0F	.	.	.
.	1d	.	.
=157	=157	=157	=157
0E	0e	0B	0g
1r	1r	1B	1g
=158	=158	=158	=158
0A	0c	1A	1a
.	.	1e	0cc
1A	1c	1f	.
=159	=159	=159	=159
1G	1d	1g	1b
1.F	0f	0c	0a
2E\	.	.	.
=160	=160	=160	=160
0C	1.e	0c	1.g
.	2d\	.	2e/
1D	1d	1B	1f
=161	=161	=161	=161
2C/	0e	1c	2e/
2D\	.	.	2f/
2E\	.	1.g	2g/
2F\	.	.	2a/
1G	1d	.	1b
.	.	2f\	.
=162	=162	=162	=162
1A	1c	1f	0cc
0G	0d	0g	.
.	.	.	1b
=163	=163	=163	=163
2.C/	0c	1.e	0cc
4D\	.	.	.
2E\	.	.	.
2F\	.	4d\	.
.	.	4c\	.
1D	1r	1B	1dd
=164	=164	=164	=164
0C	0c	1c	0ee
.	.	1e	.
1r	1d	1f	2dd\
.	.	.	2cc\
=165	=165	=165	=165
1G	0e	0g	1b
1E	.	.	1g
1F	2d\	1r	1a
.	2c\	.	.
=166	=166	=166	=166
1.G	1B	0g	2b\
.	.	.	2cc\
.	1G	.	2dd\
2E\	.	.	2ee\
1F	1A	2c\	1cc
.	.	2d\	.
=167	=167	=167	=167
1.G	2B\	2e\	0b
.	2c\	2f\	.
.	2d\	1g	.
2E\	2e\	.	.
1F	1c	1a	1a
=168	=168	=168	=168
1G	1.d	0g	1b
0A	.	.	0cc
.	2B\	.	.
.	1c	1f#i	.
=169	=169	=169	=169
0G	1d	0g	2b\
.	.	.	1dd
.	2B\	.	.
.	2c\	.	4cc\
.	.	.	4b\
1F	1d	1r	1a
=170	=170	=170	=170
1G	0e	0g	1.g
0E	.	.	.
.	.	.	2a/
.	1e	1g	2b\
.	.	.	2cc\
=171	=171	=171	=171
1D	1f	1a	1dd
1E	1.e	1g	2cc\
.	.	.	1b
1F	.	1a	.
.	2c\	.	2a/
=172	=172	=172	=172
1D	1d	1f	0a
0E	0B	0e	.
.	.	.	1g#i
=173	=173	=173	=173
0.Al	0.Al	0.el	0.al
==	==	==	==
*-	*-	*-	*-
!!!RDF**kern: l=long note in original notation
!!!RDF**kern: i=editorial accidental
!!!ENC:	Chris Gage 01-11-2013
!!!END:	2013/07/16/
!!!EED:	Jesse Rodin
!!!EEV:	2013/07/19/
!!!ONB:	Translated from MusicXML and edited on 2013/07/19/ by Craig Sapp
!!muse2ps: T^@{OPR}^u^@{ONM}{. }@{OTL}^C^@{COM}^i2I150v85,85,85,150Q16
